X: 11412
T: MADAME FREDERICK'S DANCE
C: Marshall.
%R: strathspey
B: W. Hamilton "Universal Tune-Book" Vol. 1 Glasgow 1844 p.141 #2
S: http://imslp.org/wiki/Hamilton's_Universal_Tune-Book_(Various)
Z: 2016 John Chambers <jc:trillian.mit.edu>
M: C|
L: 1/16
K: A
% - - - - - - - - - - - - - - - - - - - - - - - - -
A2 |\
A,3B,C3D E3FE3C | A,3CE3C EA3Ac3 |\
A,3B,C3D E3FE3C | B,2B2(dcBA) G3BB3c |\
A,3B,C3D E3FE3C |
A,3CE3C E2A2 A2(cd) |\
e3cA3E F3df3e | d3cB3A E2A2A2 |]\
c2 |\
A3Ac3A e3Ac3A | E3Ac3e (fedc) B3c |
A3Ac3A e3Ac3A | F3A (FEDC) B,3BB2c2 |\
A3Ac3A e3Ac3A | E3Ac3e (fedc) B3c |\
A3BA3E F3AF3D | E3DC3B, A,2A2A2 |]
% - - - - - - - - - - - - - - - - - - - - - - - - -

%%sep 1 1 500
%%sep 1 1 500

